packages/core/src/svgs/flm.svg

<svg width="24" height="24" viewBox="0 0 24 24" fill="none" xmlns="http://www.w3.org/2000/svg">
<g clip-path="url(#clip0_31_10349)">
<path d="M0 0H24V24H0V0Z" fill="url(#paint0_linear_31_10349)"/>
<path d="M9.42852 8.77293L9.35223 8.85736L7.60623 10.8039L7.07995 11.3911C6.68523 11.7858 6.42423 11.5205 6.42852 11.1746V9.32878C6.44309 8.89507 6.60766 8.4845 6.88795 8.18321C7.16866 7.88193 7.5428 7.71393 7.93195 7.71436H9.42852L8.99223 8.20893L8.48652 8.7725L9.42852 8.77293Z" fill="url(#paint1_linear_31_10349)"/>
<path d="M17.3237 9.81723V9.93723C17.2964 10.9525 16.9037 11.9239 16.2175 12.6728L10.8728 18.0175C10.5767 18.2823 10.1935 18.4288 9.79626 18.4289C9.68853 18.4268 9.58109 18.4168 9.47483 18.3989L9.16111 18.3017C8.82534 18.1851 8.49811 18.0451 8.18183 17.8829L8.11454 17.8457C8.08555 17.8241 8.06221 17.7959 8.04653 17.7633C8.03086 17.7308 8.02331 17.6949 8.02454 17.6588C8.0238 17.6078 8.03959 17.5578 8.06954 17.5165L14.0648 11.5139C14.094 11.4827 14.1188 11.4475 14.1394 11.4094C14.1767 11.3378 14.2067 11.2628 14.2294 11.1852C14.2406 11.136 14.248 11.086 14.2517 11.0357C14.2582 11.0037 14.2607 10.971 14.259 10.9384C14.259 10.6727 14.1535 10.4181 13.9658 10.2304C13.7777 10.0422 13.5231 9.85709 13.2574 9.85709H11.0674L12.5395 8.46423C12.5838 8.43428 12.6219 8.39617 12.6518 8.35194C12.6915 8.28945 12.7124 8.21684 12.7118 8.1428C12.7118 8.04164 12.6716 7.94462 12.6001 7.87309C12.5286 7.80156 12.4316 7.76137 12.3304 7.76137H9.19926C9.19926 7.76137 9.50483 7.43266 9.6244 7.31309C9.89354 7.02166 10.2223 6.64794 10.5814 6.38609C11.3048 5.85422 12.1799 5.56877 13.0778 5.5718C13.6097 5.5718 14.1368 5.6708 14.6327 5.86323L14.8345 5.94509C15.1937 6.11052 15.528 6.32437 15.8288 6.58066L15.8888 6.63294H15.8961C16.3447 7.03183 16.7038 7.52112 16.9499 8.06868C17.1959 8.61623 17.3233 9.20965 17.3237 9.80994V9.81723Z" fill="url(#paint2_linear_31_10349)"/>
<path d="M12.9029 7.71436H9.25276L7.35547 9.44493C7.32183 9.47915 7.29914 9.52262 7.29028 9.56978C7.28143 9.61695 7.28682 9.66569 7.30576 9.70978C7.32579 9.75396 7.35818 9.79138 7.39902 9.81755C7.43986 9.84371 7.4874 9.85749 7.5359 9.85721H11.6343L13.2179 8.29593C13.2632 8.23705 13.2871 8.16449 13.2856 8.09021C13.2855 8.04068 13.2756 7.99166 13.2563 7.94603C13.237 7.9004 13.2088 7.85908 13.1733 7.8245C13.1011 7.75384 13.004 7.7143 12.9029 7.71436ZM11.3266 8.78964C11.2624 8.7898 11.2005 8.76524 11.1539 8.72107C11.1079 8.67741 11.0809 8.61734 11.0789 8.55393C11.0794 8.51396 11.0899 8.47476 11.1096 8.43998C11.1294 8.40521 11.1576 8.37599 11.1916 8.35507C11.2297 8.33097 11.2738 8.31819 11.3189 8.31821C11.3824 8.31712 11.4438 8.34097 11.4899 8.38464C11.5123 8.40603 11.5303 8.43168 11.5427 8.46008C11.5551 8.48848 11.5618 8.51907 11.5622 8.55006C11.5627 8.58106 11.557 8.61184 11.5455 8.64061C11.534 8.66938 11.5168 8.69557 11.495 8.71764C11.4505 8.76273 11.39 8.78858 11.3266 8.78964Z" fill="#E35CC7"/>
<path d="M9.714 7.76123H9.19843L7.37057 9.40823C7.33304 9.44477 7.30734 9.49175 7.29683 9.54307C7.28631 9.59439 7.29145 9.64769 7.31159 9.69606C7.33173 9.74442 7.36594 9.78561 7.40977 9.8143C7.45361 9.84299 7.50505 9.85785 7.55743 9.85694H8.35715L10.626 7.76123H9.714ZM11.4184 8.8528C11.4819 8.8528 11.5427 8.82761 11.5875 8.78276C11.6324 8.73791 11.6576 8.67708 11.6576 8.61366C11.6576 8.55023 11.6324 8.48941 11.5875 8.44456C11.5427 8.39971 11.4819 8.37452 11.4184 8.37452C11.355 8.37452 11.2942 8.39971 11.2493 8.44456C11.2045 8.48941 11.1793 8.55023 11.1793 8.61366C11.1793 8.67708 11.2045 8.73791 11.2493 8.78276C11.2942 8.82761 11.355 8.8528 11.4184 8.8528Z" fill="#8961D0"/>
<path opacity="0.48" d="M11.4183 8.8528C11.4818 8.8528 11.5426 8.8276 11.5874 8.78275C11.6323 8.73791 11.6575 8.67708 11.6575 8.61365C11.6575 8.55023 11.6323 8.4894 11.5874 8.44456C11.5426 8.39971 11.4818 8.37451 11.4183 8.37451C11.3549 8.37451 11.2941 8.39971 11.2492 8.44456C11.2044 8.4894 11.1792 8.55023 11.1792 8.61365C11.1792 8.67708 11.2044 8.73791 11.2492 8.78275C11.2941 8.8276 11.3549 8.8528 11.4183 8.8528Z" fill="url(#paint3_linear_31_10349)"/>
<path opacity="0.48" d="M11.6502 8.61365C11.6502 8.55154 11.6261 8.49186 11.5829 8.44723C11.5397 8.40259 11.4808 8.37652 11.4187 8.37451C11.3766 8.37552 11.3353 8.38697 11.2987 8.40784C11.262 8.42871 11.2311 8.45834 11.2087 8.49408C11.2429 8.46432 11.2847 8.44461 11.3294 8.43712C11.3741 8.42963 11.42 8.43466 11.462 8.45165C11.5044 8.46925 11.5406 8.49899 11.566 8.53713C11.5915 8.57526 11.6051 8.62008 11.6052 8.66594V8.67323C11.6066 8.71281 11.5962 8.75193 11.5752 8.78551C11.5989 8.76365 11.6179 8.73708 11.6308 8.70749C11.6437 8.6779 11.6503 8.64594 11.6502 8.61365Z" fill="#480061"/>
<path opacity="0.75" d="M12.902 7.71436H9.24631L7.35588 9.44493C7.21017 9.5915 7.3186 9.85293 7.5286 9.85721H11.6322L13.2179 8.29593C13.2632 8.23707 13.2871 8.1645 13.2856 8.09021C13.2855 8.04067 13.2756 7.99165 13.2563 7.94601C13.237 7.90038 13.2088 7.85907 13.1733 7.8245C13.1008 7.75371 13.0034 7.71417 12.902 7.71436ZM11.3163 8.78964C11.2529 8.78953 11.1921 8.76479 11.1466 8.72064C11.1243 8.69884 11.1066 8.67284 11.0945 8.64415C11.0824 8.61546 11.076 8.58465 11.0759 8.5535C11.0763 8.51353 11.0869 8.47433 11.1066 8.43955C11.1263 8.40478 11.1545 8.37557 11.1886 8.35464C11.2269 8.33064 11.2711 8.31801 11.3163 8.31821C11.3786 8.31998 11.4378 8.3456 11.4817 8.38978C11.525 8.43393 11.5495 8.49264 11.5495 8.55393C11.5478 8.61493 11.523 8.67301 11.48 8.71636C11.4363 8.76005 11.378 8.786 11.3163 8.78921V8.78964Z" fill="url(#paint4_linear_31_10349)"/>
<path d="M9.74967 7.71436H9.24438L7.36895 9.41536C7.18509 9.58293 7.21895 9.85721 7.50009 9.85721H8.45581L10.7144 7.71436H9.74967Z" fill="url(#paint5_linear_31_10349)"/>
<path opacity="0.43" d="M12.2142 9.8572L13.1999 8.31006L11.6313 9.8572H12.2142Z" fill="url(#paint6_linear_31_10349)"/>
</g>
<defs>
<linearGradient id="paint0_linear_31_10349" x1="4.46486" y1="4.16229" x2="29.2059" y2="32.5787" gradientUnits="userSpaceOnUse">
<stop stop-color="#1A1E21"/>
<stop offset="1" stop-color="#06060A"/>
</linearGradient>
<linearGradient id="paint1_linear_31_10349" x1="6.42852" y1="9.64293" x2="9.42852" y2="9.64293" gradientUnits="userSpaceOnUse">
<stop stop-color="#4750D9"/>
<stop offset="0.41" stop-color="#5C45DC"/>
<stop offset="1" stop-color="#8131E1"/>
</linearGradient>
<linearGradient id="paint2_linear_31_10349" x1="8.02454" y1="11.9999" x2="17.3237" y2="11.9999" gradientUnits="userSpaceOnUse">
<stop stop-color="#E96161"/>
<stop offset="0.2" stop-color="#E65B76"/>
<stop offset="0.61" stop-color="#DF4AAC"/>
<stop offset="1" stop-color="#D739E6"/>
</linearGradient>
<linearGradient id="paint3_linear_31_10349" x1="11.1783" y1="8.61365" x2="11.6515" y2="8.61365" gradientUnits="userSpaceOnUse">
<stop stop-color="#B100D3"/>
<stop offset="0.23" stop-color="#9C00C0"/>
<stop offset="0.69" stop-color="#67008E"/>
<stop offset="1" stop-color="#40006A"/>
</linearGradient>
<linearGradient id="paint4_linear_31_10349" x1="7.28602" y1="8.78578" x2="13.2856" y2="8.78578" gradientUnits="userSpaceOnUse">
<stop stop-color="#D0D7D3"/>
<stop offset="0.52" stop-color="#D9C5E8"/>
<stop offset="1" stop-color="#E3B1FF"/>
</linearGradient>
<linearGradient id="paint5_linear_31_10349" x1="7.29052" y1="8.78578" x2="10.7135" y2="8.78578" gradientUnits="userSpaceOnUse">
<stop stop-color="#B277EC"/>
<stop offset="0.77" stop-color="#9336E7"/>
<stop offset="1" stop-color="#8921E6"/>
</linearGradient>
<linearGradient id="paint6_linear_31_10349" x1="11.7299" y1="9.16334" x2="13.2805" y2="9.16334" gradientUnits="userSpaceOnUse">
<stop stop-opacity="0.5"/>
<stop offset="0.1" stop-color="#201322" stop-opacity="0.59"/>
<stop offset="0.25" stop-color="#4A2C4E" stop-opacity="0.72"/>
<stop offset="0.4" stop-color="#6D4173" stop-opacity="0.82"/>
<stop offset="0.55" stop-color="#885190" stop-opacity="0.9"/>
<stop offset="0.85" stop-color="#A664B0"/>
</linearGradient>
<clipPath id="clip0_31_10349">
<rect width="24" height="24" fill="white"/>
</clipPath>
</defs>
</svg>

<svg xmlns="http://www.w3.org/2000/svg" width="24" height="24" fill="none" viewBox="0 0 24 24"><g clip-path="url(#a)"><path fill="url(#b)" d="M0 0h24v24H0z"/><path fill="url(#c)" d="m9.429 8.773-.077.084-1.746 1.947-.526.587c-.395.395-.656.13-.651-.216V9.329c.014-.434.179-.844.459-1.146s.655-.47 1.044-.469h1.497l-.437.495-.505.564z"/><path fill="url(#d)" d="M17.324 9.817v.12a4.22 4.22 0 0 1-1.107 2.736l-5.344 5.344a1.62 1.62 0 0 1-1.398.382l-.314-.097a8 8 0 0 1-.98-.42l-.066-.036a.22.22 0 0 1-.09-.187c-.001-.051.015-.101.045-.142l5.995-6.003a.5.5 0 0 0 .074-.105q.057-.107.09-.224.018-.074.023-.15a.4.4 0 0 0 .007-.097c0-.265-.106-.52-.293-.708-.188-.188-.443-.373-.709-.373h-2.19l1.473-1.393a.384.384 0 0 0-.21-.703H9.2s.305-.328.424-.448c.27-.291.598-.665.957-.927a4.2 4.2 0 0 1 2.497-.814c.532 0 1.059.099 1.555.291l.202.082q.54.25.994.636l.06.052h.007a4.26 4.26 0 0 1 1.428 3.177z"/><path fill="#E35CC7" d="M12.903 7.714h-3.65l-1.898 1.73a.24.24 0 0 0-.05.266.25.25 0 0 0 .23.147h4.1l1.583-1.561a.33.33 0 0 0 .068-.206.37.37 0 0 0-.113-.266.39.39 0 0 0-.27-.11M11.327 8.79a.25.25 0 0 1-.173-.069.24.24 0 0 1-.075-.167.24.24 0 0 1 .113-.199.24.24 0 0 1 .127-.037.24.24 0 0 1 .224.142.23.23 0 0 1-.048.258.24.24 0 0 1-.168.072"/><path fill="#8961D0" d="M9.714 7.761h-.516L7.371 9.408a.261.261 0 0 0 .186.449h.8l2.269-2.096zm1.704 1.092a.239.239 0 1 0 0-.478.239.239 0 0 0 0 .478"/><path fill="url(#e)" d="M11.418 8.853a.239.239 0 1 0 0-.478.239.239 0 0 0 0 .478" opacity=".48"/><path fill="#480061" d="M11.65 8.614a.24.24 0 0 0-.231-.24.26.26 0 0 0-.21.12.25.25 0 0 1 .253-.042.23.23 0 0 1 .143.214v.007a.2.2 0 0 1-.03.113.23.23 0 0 0 .075-.172" opacity=".48"/><path fill="url(#f)" d="M12.902 7.714H9.246l-1.89 1.73c-.146.147-.037.409.173.413h4.103l1.586-1.561a.33.33 0 0 0 .068-.206.37.37 0 0 0-.113-.266.39.39 0 0 0-.271-.11M11.316 8.79a.24.24 0 0 1-.222-.146.2.2 0 0 1-.018-.09.24.24 0 0 1 .113-.2.24.24 0 0 1 .127-.036.24.24 0 0 1 .166.072.24.24 0 0 1 .068.164.24.24 0 0 1-.07.162.25.25 0 0 1-.164.073" opacity=".75"/><path fill="url(#g)" d="M9.75 7.714h-.506L7.37 9.415c-.184.168-.15.442.131.442h.956l2.258-2.143z"/><path fill="url(#h)" d="M12.214 9.857 13.2 8.31 11.63 9.857z" opacity=".43"/></g><defs><linearGradient id="b" x1="4.465" x2="29.206" y1="4.162" y2="32.579" gradientUnits="userSpaceOnUse"><stop stop-color="#1A1E21"/><stop offset="1" stop-color="#06060A"/></linearGradient><linearGradient id="c" x1="6.429" x2="9.429" y1="9.643" y2="9.643" gradientUnits="userSpaceOnUse"><stop stop-color="#4750D9"/><stop offset=".41" stop-color="#5C45DC"/><stop offset="1" stop-color="#8131E1"/></linearGradient><linearGradient id="d" x1="8.025" x2="17.324" y1="12" y2="12" gradientUnits="userSpaceOnUse"><stop stop-color="#E96161"/><stop offset=".2" stop-color="#E65B76"/><stop offset=".61" stop-color="#DF4AAC"/><stop offset="1" stop-color="#D739E6"/></linearGradient><linearGradient id="e" x1="11.178" x2="11.652" y1="8.614" y2="8.614" gradientUnits="userSpaceOnUse"><stop stop-color="#B100D3"/><stop offset=".23" stop-color="#9C00C0"/><stop offset=".69" stop-color="#67008E"/><stop offset="1" stop-color="#40006A"/></linearGradient><linearGradient id="f" x1="7.286" x2="13.286" y1="8.786" y2="8.786" gradientUnits="userSpaceOnUse"><stop stop-color="#D0D7D3"/><stop offset=".52" stop-color="#D9C5E8"/><stop offset="1" stop-color="#E3B1FF"/></linearGradient><linearGradient id="g" x1="7.291" x2="10.713" y1="8.786" y2="8.786" gradientUnits="userSpaceOnUse"><stop stop-color="#B277EC"/><stop offset=".77" stop-color="#9336E7"/><stop offset="1" stop-color="#8921E6"/></linearGradient><linearGradient id="h" x1="11.73" x2="13.28" y1="9.163" y2="9.163" gradientUnits="userSpaceOnUse"><stop stop-opacity=".5"/><stop offset=".1" stop-color="#201322" stop-opacity=".59"/><stop offset=".25" stop-color="#4A2C4E" stop-opacity=".72"/><stop offset=".4" stop-color="#6D4173" stop-opacity=".82"/><stop offset=".55" stop-color="#885190" stop-opacity=".9"/><stop offset=".85" stop-color="#A664B0"/></linearGradient><clipPath id="a"><path fill="#fff" d="M0 0h24v24H0z"/></clipPath></defs></svg>
